X:1
T:D.778, Op.60
T:Greisengesang
T:1. Greisengesang
T:Franz Schubert
T:D.778, Op.60
T:Friedrich Rückert
T:OpenScore (CC0)
T:OpenScore (CC0)
T:OpenScore (CC0)
T:OpenScore (CC0)
T:OpenScore (CC0)
C:Franz Schubert
Z:Friedrich Rückert
Z:OpenScore (CC0)
%%score 1 { ( 2 4 6 ) | ( 3 5 ) }
L:1/8
Q:1/4=88
M:2/2
K:D
V:1 bass nm="Singstimme."
V:2 bass nm="Pianoforte  "
V:4 bass 
V:6 bass 
V:3 bass 
V:5 bass 
V:1
"^Mässig langsam." z8 | z8 | z8 | z8 | z4 !fermata!z2!mf! F,2 | B,3 B, A,2 F,2 | G,4 D,2 (D,E,) | %7
w: ||||Der|Frost hat mir be-|rei- fet des *|
 F,4 E,4 | D,4 z2!p! F,2 | B,3 B, ^A,2 ^G,2 | (F,2 ^G,^A,) B,2 C2 | ^D6 C2 | %12
w: Hau- ses|Dach; doch|warm ist's mir ge-|blie- * * ben im|Wohn- ge-|
 !breath!!fermata!B,6!mf! F,2 | B,3 B, A,2 F,2 | G,4 D,2 (D,E,) | F,4 E,4 | D,4 z2!p! F,2 | %17
w: mach. Der|Win- ter hat die|Schei- tel mir *|weiss ge-|deckt; doch|
 B,3 B, ^A,2 ^G,2 | (F,2 ^G,^A,) B,2 C2 | ^D6 C2 | !breath!!fermata!B,6!mp! (B,=D) | %21
w: fliesst das Blut, das|ro- * * te, durch's|Herz- ge-|mach. Der *|
 C2 F,2 F,2 (G,B,) | A,4 D,2 (B,D) | C2 F,2 F,2 (G,B,) | A,4 D,2 E,3/2 G,/ | %25
w: Ju- gend- flor der *|Wan- gen, die *|Ro- sen sind ge- *|gan- gen, all' ge-|
 F,2 E,3/2 D,/ C,2 B,,2 | F,8 | z8 | z8 |[Q:1/2=40] G,8 | ^G,3 G, A,3 A, |{B,} ^A,4 A,4 | %32
w: gan- gen ein- an- der|nach.|||Wo|sind sie hin- ge-|gan- gen?|
 z4 z2!p![Q:1/2=38] E,2 | B,8 | F,8 | ^D,6 z2 | z2[Q:1/2=44] ^D,2 D,4- | D,2 ^G,2 ^A,2 B,2 | %38
w: In's|Herz|hin-|ab.|Da blüh'n|_ sie nach Ver-|
[Q:1/2=38] (C4{^D} C^B,CD) | =B,4 z2 F,2 | F,4 (^E,F,^G,F,) | ^D,4 ^A,2 B,2 | (C4{^D} C^B,CD) | %43
w: lan- * * * *|gen, wie|vor so _ _ _|nach, nach Ver-|lan- * * * *|
 =B,4[Q:1/2=30] (^D^A,B,^G,) | F,8 | (B,^A,^G,F,{E,F,} E,^D,E,C,) | B,,8- | %47
w: gen, wie _ _ _|vor|so _ _ _ _ _ _ _|nach.|
 B,,4 !breath!!fermata!z4 |[Q:1/2=44] z8 | z8 | z8 | z8 | z4 !fermata!z2!mf! F,2 | B,3 B, A,2 F,2 | %54
w: _|||||Sind|al- le Freu- den-|
 G,4 D,2 (B,,C,) | D,4 E,4 | F,4 z2!p! F,2 | B,3 B, ^A,2 ^G,2 | (F,2 ^G,^A,) B,2 C2 | ^D6 C2 | %60
w: strö- me der *|Welt ver-|siegt? Noch|fliesst mir durch den|Bu- * * sen ein|stil- ler|
 !breath!!fermata!B,6!mf! F,2 | B,3 B, A,2 F,2 | G,4 D,2 (B,,C,) | D,4 E,4 | F,4 z2!p! F,2 | %65
w: Bach. Sind|al- le Nach- ti-|gal- len ~der *|Flur ver-|stummt? Noch|
 B,3 B, ^A,2 ^G,2 | (F,2 ^G,^A,) B,2 C2 | ^D6 C2 | !breath!!fermata!B,6[Q:1/2=40] (B,=D) | %69
w: ist bei mir im|stil- * * len hier|ei- ne|wach. Sie *|
 C2 F,2 F,2 (G,B,) | A,4 D,2 (B,D) | C2 F,2 F,2 (G,B,) | A,2 D,2 D,2[Q:1/2=35] (E,G,) | %73
w: sin- get: Herr des *|Hau- ses! ver- *|schleuss dein Thor, ~dass *|nicht die Welt, die *|
 F,2 E,3/2 D,/ C,2 B,,2 | !fermata!F,8 | z8 | z4 z2!p![Q:1/2=30] F,2 | G,3 G, G,2 G,2 | %78
w: kal- te, dring' in's Ge-|mach.||Schleuss|aus den rau- hen|
 ^G,4 A,2 A,2 |{B,} ^A,3 A, A,4 | z4 z2!p![Q:1/2=35] F,2 | B,6 B,2 | F,6 F,2 |{E,} ^D,4 D,4 | %84
w: O- dem der|Wirk- lich keit,|und|nur dem|Duft der|Traü- me,|
 z2 ^D,2 D,4- | D,2 ^G,2 ^A,2 B,2 |[Q:1/2=28] (C4{^D} C^B,CD) | =B,4 z2 F,2 | F,4 (^E,F,^G,F,) | %89
w: und nur|_ dem Duft der|Träu- * * * *|me gib|Dach und _ _ _|
 ^D,3 F, ^A,2 B,2 | (C4{^D} C^B,CD) | =B,4 ^D^A,B,^G, | F,8 | (B,^A,^G,F,{E,F,} E,^D,E,C,) | %94
w: Fach, dem Duft der|Träu- * * * *|me gib _ _ _|Dach|und _ _ _ _ _ _ _|
 B,,8- |[Q:1/2=35] B,,4 z4 | z8 | z8 | z8 | z8 | z8 | !fermata!z8 |] %102
w: Fach.|_|||||||
V:2
 [D,F,B,]4 [F,B,F]4 | [^G,B,^E]4[K:treble] [B,^EB]4 | [^A,F^A]2 [C=EGc]2 [DF]2 [B,DFB]2 | %3
[K:bass] [B,D]4 [E,F,^A,C]4 | !fermata![D,F,B,]6 (F,2 | B,4 A,2 F,2) | (G,4 D,2) (D,E,) | %7
 [A,,D,F,]4 [A,,C,E,]4 | [F,,A,,D,]4 z2 F,2 | (B,4 ^A,2 ^G,2) | (F,2 ^G,^A, B,2) [G,B,C]2 | %11
 [F,B,^D]4 [E,F,^A,C]4 | !fermata![^D,F,B,]6 (F,2 | B,4 A,2 F,2) | (G,4 D,2) (D,E,) | %15
 [A,,D,F,]4 [A,,C,E,]4 | [F,,A,,D,]4 z2!pp! F,2 | ((B,4 ^A,2 ^G,2)) | (F,2 ^G,^A, B,2) [G,B,C]2 | %19
 [F,B,^D]4 [E,F,^A,C]4 | !fermata![^D,F,B,]6{B,} (=D2 | (C2) F,) z F,2{G,} (B,2 | %22
 (A,4) D,) z{B,} (D2 | (C2) F,) z F,2{G,} (B,2 | (A,4) D,) z (E,>G, | (F,2) E,>D, C,2 B,,2) | %26
 (F2 E>D C2 B,2) | (([^A,C]4 [B,D]4)) | [F,^A,C]8 | [E,^A,C]8 | [E,^G,C]4 [E,=G,C]4 | [E,F,C]8- | %32
 [E,F,C]8 | [^D,F,B,-^D]8 | (B,2 ^A,2 ^G,2 A,2) | [^D,B,]6 [D,^A,]2 | %36
 ([^D,B,]2 [D,^A,]2 [D,B,]2 [D,A,]2) | [^D,B,]4 [F,C]2 [F,^D]2 | ([F,E]8 | [F,^D]4) z2 [^D,F,B,]2 | %40
 ([E,F,C]6 [C,F,^A,]2) | [^D,F,B,]4 [F,C]2 [F,^D]2 |!>(! ([F,^A,E]8!>)! | [F,B,^D]6) [^D,F,B,]2 | %44
 [E,F,C]8- | [E,F,C]4 [C,F,^A,]4 | [^D,F,B,]8- | [D,F,B,]4 !fermata!z4 | [D,F,B,]4 [F,B,F]4 | %49
 [^G,B,^E]4[K:treble] [B,^EB]4 | [^A,F^A]2 [C=EGc]2 [DF]2 [B,DFB]2 |[K:bass] [F,B,D]4 [E,F,^A,C]4 | %52
 !fermata![D,F,B,]6 (F,2 | B,4 A,2 F,2) | (G,4 D,2) (B,,C,) | [A,,D,]4 [A,,C,E,]4 | %56
 [A,,D,F,]4 z2[K:treble] (F2 | B4 ^A2 [E^G]2) | ([^DF]2 [E^G][C^A] [DB]2) [GBc]2 | %59
 [FB^d]4 [EF^Ac]4 | !fermata![^DFB]6[K:bass] (F,2 | B,4 A,2 F,2) | ((G,4 D,2)) (B,,C,) | %63
 [A,,D,]4 [A,,C,E,]4 | [A,,D,F,]4 z2[K:treble] (F2 | B4 ^A2 [E^G]2) | %66
 ([^DF]2 [E^G][C^A] [DB]2) [GBc]2 | [FB^d]4 [EF^Ac]4 | !fermata![^DFB]6!p! [FB]2 | [F^A]6 [D=G]2 | %70
 [DF]6 [FB]2 | [F^A]6 [D=G]2 | [DF]6 [B,E]2 | F8 | (F2 E>D C2 B,2) |[K:bass] (([^A,C]4 [B,D]4)) | %76
 [F,^A,C]6 z2 | [E,^A,C]8 | [E,^G,C]4 [E,=G,C]4 | [E,F,C]8- | [E,F,C]8 |[K:treble] [^DFB-^d]8 | %82
 (B2 ^A2 ^G2 A2) | ([B,^DB]6 [^A,D^A]2) | ([B,^DB]2 [^A,D^A]2 [B,DB]2 [A,DA]2) | %85
 [B,^DB]4 [Fc]2 [DF^d]2 | ([EFe]8 | [^DF^d]6) [B,DFB]2 | [CEFc]6 [^A,CF^A]2 | %89
 [B,^DFB]4 [CFc]2 [DF^d]2 | ([EFe]8 | [^DF^d]6) [DFB]2 | [CEFc]8- | [CEFc]4 [^A,CF^A]4 | %94
 [B,^DFB]6[K:bass] [F,B,^D]2 | (E2 C2 F4) | [^D,B,]6 [F,B,^D]2 | (E2 C2 !>!F4-) |!p!!p! F6 (C^D) | %99
 [^D,B,]8 | [^D,F,B,]4 [D,F,B,]4 | !fermata![^D,F,B,]8 |] %102
V:3
!f! [B,,,B,,]4"^ben marcatto" [D,,D,]4 | [C,,C,]4 [=G,,,=G,,]4 | %2
 [F,,,F,,]2 [^A,,,^A,,]2 [B,,,B,,]2 [D,,D,]2 | [F,,F,]4 [F,,,F,,]4 | %4
 !fermata![B,,,B,,]6!mf! (F,,2 | B,,4 A,,2 F,,2) | (G,,4 D,,2) [G,,,G,,]2 | A,,,4 A,,,4 | %8
 D,,4!pp! z4 | z4 z2 E,2 | (^D,2 E,C, D,2) E,,2 | F,,4 F,,4 | !fermata![B,,,B,,]6!mf! (F,,2 | %13
 B,,4 A,,2 F,,2) | (G,,4 D,,2) [G,,,G,,]2 | A,,,4 A,,,4 | D,,4 z4 | z4 z2 E,2 | %18
 (^D,2 E,C, D,2) E,,2 | F,,4 [F,,,F,,]4 | !fermata![B,,,B,,]6!mf!{B,,} (=D,2 | %21
 (C,2) F,,) z F,,2!mf!{G,,} (!>!B,,2 |!mf! (A,,4) D,,) z!f!{B,,} (!>!D,2 | %23
!mf! (C,2) F,,) z F,,2{G,,} (B,,2 | (A,,4) D,,) z!f! (E,,>G,, | (F,,2) E,,>D,, C,,2 B,,,2) | %26
!>(! (([^A,,C,]4 [B,,D,]4))!>)! |!mp! (!>![F,,F,]2"^dim." [E,,E,]>[D,,D,] [C,,C,]2 [B,,,B,,]2) | %28
!p! [F,,,F,,]8 |"^cresc." [G,,,G,,]8 | [^G,,,^G,,]4 [A,,,A,,]4 | [^A,,,^A,,]8- | [A,,,A,,]8 | %33
!pp! [B,,,B,,]8 | [F,,,F,,]8 | [^G,,,^G,,]6!p! !>!^^F,,2 |!pp! (^G,,2 ^^F,,2 G,,2 F,,2) | %37
 ^G,,4!<(! ^F,,2 ^D,,2!<)! |!mf!!>(! (^A,,,8 | B,,,4)!>)!!p! z2 ^D,,2 | [F,,,F,,-]8 | %41
 [B,,,F,,]4!<(! F,,2 ^D,,B,,,!<)! |!mf! [F,,,F,,-]8 |!p! [B,,,F,,]6!p! ^D,,2 | [F,,,F,,]8- | %45
 [F,,,F,,]8 | [B,,,F,,]8- | [B,,,F,,]4 !fermata!z4 |!f! [B,,,B,,]4 [D,,D,]4 | %49
 [C,,C,]4 [=G,,,=G,,]4 | [F,,,F,,]2 [^A,,,^A,,]2 [B,,,B,,]2 [D,,D,]2 | F,,4 [F,,,F,,]4 | %52
 !fermata![B,,,B,,]6!mf! z2 | z2 (B,,2 F,2 ^D,2) | (E,2 G,,A,, B,,2) G,,2 | F,,4 A,,,4 | %56
 D,,4!pp! z2 (F,2 | B,4 ^A,2 [E,^G,]2) | ([^D,F,]2 [E,^G,][C,^A,] [D,B,]2) [E,B,C]2 | %59
 [F,B,^D]4 [F,^A,C]4 | !fermata![B,,F,B,]6!mf! z2 | z2 (B,,2 F,2 ^D,2) | (E,2 G,,A,, B,,2) G,,2 | %63
 F,,4 A,,,4 | D,,4!pp! z2 (F,2 | B,4 ^A,2 [E,^G,]2) | ([^D,F,]2 [E,^G,][C,^A,] [D,B,]2) [E,B,C]2 | %67
 [F,B,^D]4 [F,^A,C]4 | !fermata![B,,F,B,]6 =D2 | C6 B,2 | A,6 D2 | C6 B,2 | A,6"_cresc." x2 | %73
 (F,2 E,>D, C,2 B,,2) |!f! (([^A,,C,]4 [B,,D,]4)) | %75
"^dim." (!>![F,,F,]2 [E,,E,]>[D,,D,] [C,,C,]2 [B,,,B,,]2) | [F,,,F,,]6 z2 |!p! [G,,,G,,]8 | %78
"_cresc." [^G,,,^G,,]4 [A,,,A,,]4 | [^A,,,^A,,]8- | [!courtesy!^A,,,!courtesy!^A,,]8 | %81
!pp! [B,,F,B,-]8 | (B,2 ^A,2 ^G,2 A,2) | ([^G,,^D,^G,]6 [^^F,,D,^^F,]2) | %84
 ([^G,,^D,^G,]2 [^^F,,D,^^F,]2 [G,,D,G,]2 [F,,D,F,]2) | [^G,,^D,^G,]4!<(! [F,^A,C]2 [D,F,B,]2!<)! | %86
!mf!!>(! ([^A,,F,]8!>)! |!mp! [B,,F,B,]6) [F,,^D,F,]2 |!>(! [F,,E,F,]6!>)!!p! [F,,C,F,]2 | %89
 [B,,^D,F,]4!<(! [F,^A,]2 [F,B,]2!<)! |!mf!!>(! ([F,,C,^A,]8 | [B,,^D,B,]6)!>)!!p! [D,F,B,]2 | %92
 [F,,E,F,]8- | [F,,E,F,]4 [F,,C,F,]4 | [B,,^D,F,]6 [B,,,F,,B,,]2 | [B,,,F,,C,]8 | %96
 [B,,,F,,B,,]6 [B,,,F,,B,,]2 | [B,,,F,,C,]8- | C,6 F,,2 | [B,,,F,,B,,]8 | %100
!f! [B,,,F,,B,,]4 [B,,,F,,B,,]4 | !fermata![B,,,F,,B,,]8 |] %102
V:4
 x8 | x4[K:treble] x4 | x8 |[K:bass] x8 | x8 | x8 | x6 B,,2 | x8 | x8 | x8 | x8 | x8 | x8 | x8 | %14
 x6 B,,2 | x8 | x8 | x8 | x8 | x8 | x8 | x8 | x8 | x8 | x8 | x8 | F,8 | F,8 | x8 | x8 | x8 | x8 | %32
 x8 | x8 | [E,C]8 | x8 | x8 | x8 | x8 | x8 | x8 | x8 | x8 | x8 | x8 | x8 | x8 | x8 | x8 | %49
 x4[K:treble] x4 | x8 |[K:bass] x8 | x8 | x8 | x6 x2 | x8 | x6[K:treble] x2 | x8 | x8 | x8 | %60
 x6[K:bass] x2 | x8 | x6 x2 | x8 | x6[K:treble] x2 | x8 | x8 | x8 | x8 | x8 | x8 | x8 | x8 | %73
 (([^A,C]4 [B,D]4)) | x8 |[K:bass] F,8 | x8 | x8 | x8 | x8 | x8 |[K:treble] x8 | [Ec]8 | x8 | x8 | %85
 x8 | x8 | x8 | x8 | x8 | x8 | x8 | x8 | x8 | x6[K:bass] x2 | (F,4 E,4) | x8 | [F,^A,-]8 | %98
 [E,A,]8 | x8 | x8 | x8 |] %102
V:5
 x8 | x8 | x8 | x8 | x8 | x8 | x8 | x8 | x8 | x8 | x8 | x8 | x8 | x8 | x8 | x8 | x8 | x8 | x8 | %19
 x8 | x8 | x8 | x8 | x8 | x8 | x8 | F,,8 | x8 | x8 | x8 | x8 | x8 | x8 | x8 | x8 | x8 | x8 | x8 | %38
 x8 | x8 | x8 | x8 | x8 | x8 | x8 | x8 | x8 | x8 | x8 | x8 | x8 | x8 | x8 | x8 | x8 | x8 | x8 | %57
 x8 | x8 | x8 | x8 | x8 | x8 | x8 | x8 | x8 | x8 | x8 | x8 | C2 F,2 F,2 x2 | A,4 D,2 x2 | %71
 C2 F,2 F,2 x2 | A,4 D,2 G,2 | x8 | [F,,F,]8 | x8 | x8 | x8 | x8 | x8 | x8 | x8 | [F,C]8 | x8 | %84
 x8 | x8 | x8 | x8 | x8 | x6 (^D,B,,) | x8 | x8 | x8 | x8 | x8 | x8 | x8 | x8 | [B,,,F,,]8 | x8 | %100
 x8 | x8 |] %102
V:6
 x8 | x4[K:treble] x4 | x8 |[K:bass] x8 | x8 | x8 | x8 | x8 | x8 | x8 | x8 | x8 | x8 | x8 | x8 | %15
 x8 | x8 | x8 | x8 | x8 | x8 | x8 | x8 | x8 | x8 | x8 | x8 | x8 | x8 | x8 | x8 | x8 | x8 | x8 | %34
 x8 | x8 | x8 | x8 | x8 | x8 | x8 | x8 | x8 | x8 | x8 | x8 | x8 | x8 | x8 | x4[K:treble] x4 | x8 | %51
[K:bass] x8 | x8 | x8 | x8 | x8 | x6[K:treble] x2 | x8 | x8 | x8 | x6[K:bass] x2 | x8 | x8 | x8 | %64
 x6[K:treble] x2 | x8 | x8 | x8 | x8 | x8 | x8 | x8 | x8 | x8 | x8 |[K:bass] x8 | x8 | x8 | x8 | %79
 x8 | x8 |[K:treble] x8 | x8 | x8 | x8 | x8 | x8 | x8 | x8 | x8 | x8 | x8 | x8 | x8 | %94
 x6[K:bass] x2 | ^A,8 | x8 | x8 | x8 | x8 | x8 | x8 |] %102

